ОкеанВКонцеДороги/svg/ch1/balloon7.svg

<svg xmlns="http://www.w3.org/2000/svg" width="322" height="920" fill="none" viewBox="0 0 322 920"><g fill="#bcd0e9" opacity=".51"><path d="M129.794 262.073c-4.914 32.671-8.091 88.539-1.609 149.801 6.484 61.275 22.615 127.803 56.209 181.902 21.284 34.275 27.919 66.172 26.202 95.51-1.714 29.304-11.755 55.953-23.661 79.764-5.953 11.906-12.384 23.125-18.483 33.614-6.11 10.506-11.869 20.253-16.531 29.287-4.665 9.039-8.173 17.26-9.822 24.694-1.643 7.415-1.412 13.933 1.266 19.672 9.172 19.655 17.642 26.574 24.044 27.87 6.258 1.266 11.353-2.735 14.199-7.219l2.777 1.762c-3.185 5.02-9.44 10.339-17.63 8.681-8.045-1.629-17.121-9.88-26.371-29.702-3.079-6.598-3.241-13.907-1.497-21.775 1.74-7.85 5.402-16.369 10.11-25.492 4.71-9.127 10.525-18.966 16.61-29.432 6.096-10.483 12.482-21.624 18.385-33.431 11.808-23.615 21.642-49.808 23.32-78.486 1.676-28.644-4.778-59.869-25.713-93.582-33.956-54.682-50.174-121.755-56.685-183.29-6.512-61.546-3.328-117.695 1.627-150.637z"/><path d="m117.766 261.043-9.69 16.336c8.357-.6 25.158-.588 25.505 4.253.348 4.842 12.247-2.906 18.153-7.385l-19.703-14.228c30.564-16.096 81.713-54.091 73.03-175.12-5.338-74.41-147.96-106.26-166.543 4.128-20.32 120.703 53.155 161.577 79.248 172.016"/></g></svg>

<svg width="322" height="920" viewBox="0 0 322 920" fill="none" xmlns="http://www.w3.org/2000/svg">
<g opacity="0.51">
<path d="M129.794 262.073C124.88 294.744 121.703 350.612 128.185 411.874C134.669 473.149 150.8 539.677 184.394 593.776C205.678 628.051 212.313 659.948 210.596 689.286C208.882 718.59 198.841 745.239 186.935 769.05C180.982 780.956 174.551 792.175 168.452 802.664C162.342 813.17 156.583 822.917 151.921 831.951C147.256 840.99 143.748 849.211 142.099 856.645C140.456 864.06 140.687 870.578 143.365 876.317C152.537 895.972 161.007 902.891 167.409 904.187C173.667 905.453 178.762 901.452 181.608 896.968L184.385 898.73C181.2 903.75 174.945 909.069 166.755 907.411C158.71 905.782 149.634 897.531 140.384 877.709C137.305 871.111 137.143 863.802 138.887 855.934C140.627 848.084 144.289 839.565 148.997 830.442C153.707 821.315 159.522 811.476 165.607 801.01C171.703 790.527 178.089 779.386 183.992 767.579C195.8 743.964 205.634 717.771 207.312 689.093C208.988 660.449 202.534 629.224 181.599 595.511C147.643 540.829 131.425 473.756 124.914 412.221C118.402 350.675 121.586 294.526 126.541 261.584L129.794 262.073Z" fill="#BCD0E9"/>
<path d="M117.766 261.043L108.076 277.379C116.433 276.779 133.234 276.791 133.581 281.632C133.929 286.474 145.828 278.726 151.734 274.247L132.031 260.019C162.595 243.923 213.744 205.928 205.061 84.8984C199.723 10.4893 57.1017 -21.3616 38.5184 89.0266C18.1985 209.73 91.673 250.604 117.766 261.043Z" fill="#BCD0E9"/>
</g>
</svg>
